X:1
T:Title
%%score 1 { 2 | 3 }
L:1/8
Q:1/4=107
M:4/4
K:Bb
V:1 treble nm="Grand Piano, Soprano"
V:2 bass nm="Choir Pad, Light Will Greet Thee"
V:3 bass 
V:1
 [B,D]3 [CE] [DF]2 [DB]2 | [DB]2 [FA]2 [EG]2 [GB]2 | [GB]3 [EG] [DF]2 [EG]2 | [DF]2 [CE]2 [B,D]4 | %4
w: By~L.~M.~Burkholder * * *||||
 [B,D]3 [CE] [DF]2 [DB]2 | [DB]2 [FA]2 [EG]2 [GB]2 | [GB]3 [EG] F2 [DB]2 | [DB]2 [CA]2 [DB]4 | %8
w: ||||
 [EA]3 [DB] [Fc]2 [Fc]2 | [Fc]2 [Fd]2 [DB]2 [DF]2 | [EA]3 [DB] [Fc]2 [Fc]2 | [Fc]2 [Fd]2 .[DB]4 | %12
w: ||||
 [B,D]3 [CE] [DF]2 [DB]2 | [DB]2 [FA]2 [EG]2 [GB]2 | [GB]3 [EG] F2 [DB]2 | [DB]2 [CA]2 [DB]4 | %16
w: ||||
 [EA]3 [DB] [Fc]2 [Fc]2 | [Fc]2 [Fc]2 [DB]2 [DF]2 | [EA]3 [DB] .[Fc]4 | [Fc]3 [Fd] .[DB]4 | %20
w: ||||
 [B,D]3 [CE] [DF]2 [DB]2 | [DB]2 [FA]2 [EG]2 [GB]2 | [GB]3 [EG] F2 [DB]2 | [DB]2 [CA]2 [DB]4- | %24
w: ||||
 [DB]4 z4 |] %25
w: |
V:2
 B,3 B, B,2 B,2 | B,2 B,2 B,2 B,2 | B,3 B, B,2 B,2 | B,2 F,2 F,4 | B,3 B, B,2 B,2 | %5
 B,2 B,2 B,2 B,2 | B,3 B, B,2 B,2 | B,2 F,2 F,4 | F,3 B, A,2 A,2 | A,2 A,2 B,2 B,2 | %10
 C3 B, A,2 A,2 | A,2 A,2 .B,4 | B,3 B, B,2 B,2 | B,2 B,2 B,2 B,2 | B,3 B, B,2 B,2 | B,2 F,2 F,4 | %16
 F,3 B, A,2 A,2 | A,2 A,2 B,2 B,2 | C3 B, .A,4 | A,3 A, .B,4 | B,3 B, B,2 B,2 | B,2 B,2 B,2 B,2 | %22
 B,3 B, B,2 B,2 | B,2 F,2 F,4- | F,4 z4 |] %25
V:3
 B,,3 B,, B,,2 B,,2 | B,,2 B,,2 E,2 E,2 | E,3 E, F,2 F,2 | [F,,F,]2 F,,2 B,,4 | %4
 B,,3 B,, B,,2 B,,2 | B,,2 B,,2 E,2 E,2 | E,3 E, D,2 B,,2 | F,2 z2 B,,4 | z2 z F, F,2 F,2 | %9
 F,2 F,2 z4 | F,3 F, F,2 F,2 | F,2 F,2 z4 | B,,3 B,, B,,2 B,,2 | B,,2 B,,2 E,2 E,2 | %14
 E,3 E, D,2 B,,2 | F,2 z2 B,,4 | z2 z F, F,2 F,2 | F,2 F,2 z4 | F,3 F, .F,4 | F,3 F, z4 | %20
 B,,3 B,, B,,2 B,,2 | B,,2 B,,2 E,2 E,2 | E,3 E, D,2 B,,2 | F,2 z2 B,,4- | B,,4 z4 |] %25

